X: 4
T: Hunting The Buffalo
R: barndance
M: 4/4
L: 1/8
K: Dmaj
E2|F4 BAGA|BAGF E2D2|F3A E3 c|BAGA BEAB|
c3e cBAB|c3e cBAB|F3A E3 c|BAGB ABce||
f3a fece|f3a fecA|F3A E3c|BAGA BEce|
f3a fece|f3a fecA|F3A E3c|BAGB A||